X:1
T:Make a joyful noise
T:G Major              Hezekiah Moors, 1809
T:Transcribed from Province Harmony, 1809.
T:"Chiefly from Psalm 100"
T:Anthem
%%score [ 1 2 3 ]
L:1/8
Q:1/4=60
M:2/4
K:G
V:1 treble nm="Tr." snm="Tr."
V:2 treble-8 nm="T." snm="T."
V:3 bass nm="B." snm="B."
V:1
 z2 | z2 G A | B/c/B/A/B c | d/e/d/c/B A | GBc A | B2 B3/2 B/ | cBA G | A3 A | Ged c | (B2 cA/c/ | %10
w: |Make a|joy- * * * * ful|noise * * * * un-|to * * the|Lord, Make a|joy- * * ful|noise, a|||
 BG) B/e/ ^d | !fermata!e2 B d | (^c A2) e | d3 B | c2 A2 | B4 | z4 | z4 | z2 G/A/ G/A/ | %19
w: ||||||||Come * be- *|
 B B c/B/ A/ c/ | B G z2 | z4 | z4 | z4 | z4 | z4 | z4 | z4 | B2 G B | (A2 G) F | G A B/c/B/A/ | %31
w: fore his pre- * sence with|sing- ing.||||||||We are his|peo- * ple,|and the sheep, * * *|
 G D (G/A/G/A/ | B/c/B/c/) d c | B2 B z |:[M:6/8] G3/2 D/ G B2 B | cB A A2 B | G2 A B3 | %37
w: and the sheep * * *|* * * * of his|pas- ture.|En- ter his gates with|thanks- * gi- ving, with|thanks- gi- ving;|
 B3/2 B/ B B>c d | ed ^c d2 d | B A c B2 B | Ac A G3 :|[M:2/4] z4[Q:1/4=80] | z4 | z4 | z4 | z4 | %46
w: En- ter his gates * with|thanks- * gi- ving, and|in- to his courts with|songs * of praise.||||||
 z2 B B | B2 B2 | cB AG | A2 A A | BA GF | G2 G G | G2 AB | A2 G2 |{G} F3 B | B2 cA | B2 B B | %57
w: For the|Lord is|good * to *|all, and his|ten- * der *|mer- cies are|o- ver *|all his|works, his|ten- der *|mer- cies, his|
 BG Ac | B2 B B | A2 Bc | d2 c2 |[M:3/4] B4 z2 | B4 A2 | (G2 d2) c2 | B2 B2 A2 | !fermata!A4 G B | %66
w: ten- * der *|mer- cies are|o- ver *|all his|works.|All thy|works * shall|praise thee, O|Lord, amd thy|
 c4 A2 | B2 B2 z2 |[M:2/4][Q:1/4=120] B2 B2 | B2 B2 | c2 c2 | A2 A2 | z4 | z4 | z4 | z4 | B2 B2 | %77
w: saints shall|bless thee.|Hal- le-|lu- jah,|Hal- le-|lu- jah,|||||Hal- le-|
 c2 A2 | Bc dc | B2 G2 |[Q:1/4=60] (d2 c2) | B4 |] %82
w: lu- jah,|Hal- * le- *|lu- jah,|A- *|men.|
V:2
 G A | B/c/B/A/B c | d/e/d/c/B A | G/A/ B/c/ d2- | d d e f | g2 g3/2 g/ | agf e | d3 d | %8
w: Make a|joy- * * * * ful|noise * * * * un-|to * the * Lord,|* un- to the|Lord, Make a|joy- * * ful||
 B/G/A/c/B A | (GBAc/A/ | Bd) g f | !fermata!e2 d/B/ G | Aed ^c | d3 d | e2 f2 | g4 | z2 G B | %17
w: joy- * * * * ful|noise, * * * *|* * all ye|lands. Make * a|joy- * * ful|noise un-|to the|Lord.|Serve the|
 Ad/c/B A | G G z2 | z4 | z4 | z4 | z4 | z4 | z4 | z4 | z4 | z4 | d2 B G | A/A/c/A/B A | %30
w: Lord * * * with|glad- ness,||||||||||||
 G D G/A/G/A/ | B c (B/A/B/c/ | d/e/d/c/) B A | G2 G z |:[M:6/8] B3/2 G/ B d2 d | ed ^c d2 d | %36
w: ||||||
 e2 f g3 | g3/2 g/ g g2 a | gf e d2 d | G c A B2 d | cA F G3 :|[M:2/4] z2 G2 | B2 B2 | AG AB | %44
w: |||||Be|thank- ful|un- * to *|
 c2 c2 | BA Bc | d2 d d | d2 d2 | ed cB | c2 c c | dc BA | B2 B B | cB Ad | F2 E2 |{E} D3 D | %55
w: him and|bless * his *|name, * *|||||||||
 GB Ac | B2 B B | Bd ce | d2 d g | fe dc | B2 A2 |[M:3/4] G4 z2 | (G2 d2) c2 | B4 A2 | G2 d2 ^c2 | %65
w: ||||||||||
 !fermata!d4 B G | e4 f2 | g2 g2 z2 |[M:2/4] G2 G2 | dB G2 | A2 A2 | AF D2 | z4 | z4 | z4 | z4 | %76
w: |||||||||||
 g2 d2 | ec A2 | GA Bc | d2 g2 | (B2 A2) | G4 |] %82
w: ||||||
V:3
 z2 | z4 | z2 G, A, | B,/C/B,/A,/G, D, | G, G, C D | G,2 G,3/2 G,/ | F,G,A, A,, | D,3 D, | %8
w: ||Make a|joy- * * * * ful|noise un- to the|Lord, Make a|joy- * * ful||
 E,C,D, D, | (G,,2 D,2 | G,2) G, B, | !fermata!E,2 G, B, | A,3 A, | D,3 G, | C2 D2 | G,4 | z4 | %17
w: |||||||||
 z4 | z4 | z4 | z2 G,3/2 A,/ | G, A, B,2 | CB, A,G, | D,3 D, | E,D, E, F, | G,2 G, G, | %26
w: |||Know ye|that the Lord,|he * is *|God, Tis|he * that has|made us, and|
 E,C, D, D, | G,,4 | G,2 G, G, | D,3 D, | E, F, G,2 | B, A, G,2- | G,2 D, D, | G,,2 G,, z |: %34
w: not * we our-|selves.|||||||
[M:6/8] G,3/2 G,/ G, G,2 G, | G,2 A, D,2 G, | E,2 D, G,3 | G,3/2 G,/ G, G,2 F, | E,2 A, D,2 D, | %39
w: |||||
 G, C, D, G,2 G, | C,D, D, G,,3 :|[M:2/4] z4 | z4 | z4 | z4 | z4 | z2 G, G, | G,2 G,2 | C,2 C,2 | %49
w: ||||||||||
 C,2 C, C, | D,2 D,2 | G,2 G, G, | E,2 F,G, | A,2 A,,2 | D,3 G, | E,2 D,2 | G,2 G, G, | G,2 A,2 | %58
w: |||||||||
 B,2 G, G, | DC B,A, | G,2 D,2 |[M:3/4] G,4 z2 | G,4 D,2 | G,4 A,2 | B,2 G,2 A,2 | %65
w: |||||||
 !fermata!D,4 E, E, | C,4 D,2 | G,,2 G,,2 z2 |[M:2/4] G,2 G,2 | G,2 G,2 | D,2 D,2 | D,2 D,2 | %72
w: |||||||
 G,2 G,2 | C2 D2 | (G,2 A,2) | D,4 | G,2 G,2 | C2 C2 | DC B,A, | G,2 G,2 | D,4 | G,4 |] %82
w: ||||||||||

